X:41
T: GEH ICH HIN UEBER DIE ALM
N: E1037
O: Europa, Mitteleuropa, Oesterreich, Graz
R: Tanz - Lied
M: 3/4
L: 1/16
K: Bb
F2d2 | F2eeA4G2e2 | F2ddB4
F2d2 | e2F2A4F2e2 | d2F2B4
F2d2 | F2e2A4g2f2 | f2d2B4
F2d2 | F2e2A2F2e2A2 | B4z4

@@@ Tune index: 4725
